X: 1773
T: One Wet Afternoon
B: australian traditional tunes wiki
M:4/4
L:1/8
Q: 1/4=100
K:D
V:1 
|:A2B2c2|"D"d2A2B2F2|A2D2F2FF|FEF2"A7"G2A2|"G"BzB2-B4|BAB2 B2B2|1
"D"A2A4DE|FF F2E2D2|"A7"F2:|2"D"A2A4FF|"A7"G2E2B,2C2|"D"D4F2E2||
|:"D"D2DEF2FG|A2AAd2e2|fff2e2d2|"G"B6ef|g2B2g2B2|1
"D"f2A2f2A2|"A7"e2d2c2B2|A2G2F2E2:|2"D"f2A2f2ef|"A7"g2e2B2c2|"D"d4||
% abcbook-tune_id 6342d53ab0192468832319b3


% abcbook-boost 0
% abcbook-tablature 
% abcbook-transpose 
% abcbook-lastupdated 1665324382934
% abcbook-soundfonts 
% abcbook-repeats 1
% NFF Book 2007

